Tests/FilmEngineTests/Fixtures/ExportBytes/portra-400-displayP3.cube
# Exported from Dye: Modelled · Linen 400, Display P3.
# Colour only. This LUT carries no grain, halation, bloom, micro-contrast
# or vignette, so it will look flatter than the app does.
TITLE "Modelled · Linen 400 · push +1.0 · +0.5 EV · 4800 K"
LUT_3D_SIZE 33
DOMAIN_MIN 0.0 0.0 0.0
DOMAIN_MAX 1.0 1.0 1.0
0.000000 0.000000 0.000000
0.000000 0.000000 0.000000
0.000081 0.000017 -0.000000
0.006744 0.001401 -0.000017
0.015686 0.003262 -0.000039
0.047424 0.009506 -0.000111
0.096069 0.021011 -0.000226
0.144287 0.033386 -0.000306
0.184814 0.042755 -0.000312
0.220581 0.048645 -0.000248
0.253418 0.052429 -0.000106
0.284912 0.054108 0.000479
0.314209 0.055267 0.001189
0.342041 0.055115 0.002016
0.368164 0.055359 0.002911
0.393066 0.054779 0.003885
0.416504 0.054047 0.004902
0.438477 0.052979 0.005939
0.459473 0.051605 0.007065
0.479248 0.050171 0.008514
0.497803 0.052765 0.009857
0.516113 0.058533 0.011116
0.533691 0.066589 0.012451
0.551758 0.078918 0.013527
0.568359 0.092285 0.014191
0.584961 0.106262 0.014694
0.600586 0.123108 0.014420
0.615234 0.138794 0.014442
0.630371 0.155640 0.014008
0.644043 0.171631 0.014023
0.657227 0.188354 0.013565
0.669922 0.204346 0.013779
0.682129 0.221191 0.013527
0.000000 0.000000 0.000000
0.000000 0.000000 0.000000
0.000557 0.000116 -0.000001
0.007889 0.001638 -0.000020
0.017502 0.003637 -0.000044
0.049530 0.009926 -0.000116
0.097595 0.021347 -0.000229
0.144775 0.033478 -0.000306
0.184692 0.042725 -0.000313
0.220581 0.048645 -0.000248
0.253174 0.052429 -0.000110
0.284424 0.054504 0.000464
0.313965 0.055634 0.001178
0.341797 0.056000 0.001995
0.368164 0.056244 0.002895
0.392822 0.055756 0.003857
0.416260 0.055115 0.004871
0.438477 0.053467 0.005928
0.459229 0.052673 0.006966
0.478760 0.052063 0.008240
0.498291 0.055450 0.009590
0.516602 0.061646 0.010841
0.534180 0.070557 0.012131
0.551758 0.083008 0.013100
0.568359 0.095337 0.013794
0.584961 0.110229 0.014183
0.600586 0.126221 0.014137
0.616211 0.141968 0.013962
0.630371 0.158203 0.013489
0.644531 0.174561 0.013237
0.657227 0.190918 0.012733
0.670410 0.207031 0.012672
0.682617 0.223267 0.012451
0.000000 0.000000 0.000000
0.000000 0.000000 0.000000
0.000557 0.000116 -0.000001
0.007889 0.001638 -0.000020
0.017227 0.003576 -0.000043
0.049347 0.009895 -0.000115
0.097717 0.021378 -0.000229
0.144287 0.033386 -0.000306
0.184326 0.042694 -0.000313
0.220337 0.048615 -0.000249
0.252930 0.052765 -0.000118
0.284424 0.055328 0.000454
0.314209 0.056519 0.001166
0.341797 0.057343 0.001966
0.368164 0.057678 0.002863
0.393066 0.057190 0.003830
0.416260 0.056091 0.004848
0.438721 0.055115 0.005894
0.459229 0.053894 0.006935
0.479248 0.054169 0.007996
0.498047 0.058685 0.009285
0.517090 0.065674 0.010521
0.534668 0.074585 0.011757
0.551758 0.086670 0.012497
0.569336 0.099976 0.013336
0.585449 0.114990 0.013596
0.601074 0.129883 0.013626
0.616211 0.145874 0.013535
0.630859 0.161743 0.012863
0.644531 0.177734 0.012581
0.657715 0.193726 0.011864
0.670410 0.209595 0.011780
0.682617 0.225708 0.011520
0.000649 0.002645 0.000062
0.000649 0.002645 0.000062
0.001122 0.002760 0.000058
0.008606 0.004398 0.000023
0.017838 0.006317 -0.000000
0.050385 0.012856 -0.000092
0.098145 0.024109 -0.000234
0.144409 0.036255 -0.000329
0.184448 0.045502 -0.000340
0.220337 0.051025 -0.000271
0.253174 0.055206 -0.000136
0.284424 0.057434 0.000426
0.313965 0.059113 0.001118
0.341797 0.059998 0.001917
0.368164 0.059906 0.002813
0.393066 0.059082 0.003782
0.416260 0.058044 0.004799
0.438232 0.057220 0.005821
0.459229 0.056641 0.006847
0.479492 0.057953 0.007851
0.498779 0.063232 0.008965
0.517090 0.070923 0.010132
0.535645 0.080627 0.011292
0.553223 0.092285 0.012047
0.569336 0.105774 0.012779
0.585449 0.120667 0.012932
0.601562 0.135010 0.012955
0.616699 0.151123 0.012756
0.631348 0.166016 0.012108
0.645508 0.182251 0.011505
0.658691 0.197754 0.010559
0.671387 0.213867 0.010399
0.683594 0.228760 0.009987
0.002125 0.008667 0.000205
0.002209 0.009003 0.000213
0.002790 0.008827 0.000199
0.010178 0.010918 0.000141
0.019089 0.012520 0.000099
0.050659 0.019135 -0.000034
0.098206 0.031097 -0.000215
0.144897 0.043457 -0.000370
0.185059 0.052032 -0.000407
0.220703 0.057922 -0.000334
0.253662 0.061279 -0.000177
0.284668 0.063477 0.000344
0.314453 0.064026 0.001049
0.342041 0.063843 0.001846
0.368164 0.063477 0.002741
0.393555 0.062683 0.003712
0.416504 0.061890 0.004704
0.438965 0.061646 0.005718
0.459717 0.062683 0.006695
0.479248 0.065491 0.007603
0.499023 0.070923 0.008522
0.517578 0.078918 0.009369
0.536133 0.088440 0.010292
0.553711 0.099365 0.011246
0.570312 0.113770 0.011795
0.586914 0.128052 0.012131
0.603027 0.142944 0.012032
0.618164 0.157837 0.011574
0.632812 0.173096 0.010818
0.646484 0.188477 0.010117
0.659180 0.203369 0.008980
0.672363 0.218872 0.008530
0.684570 0.233643 0.007874
0.005157 0.021042 0.000496
0.005157 0.021042 0.000496
0.005733 0.021164 0.000492
0.012932 0.022919 0.000428
0.022568 0.024918 0.000333
0.054016 0.031311 0.000124
0.099548 0.042999 -0.000180
0.145752 0.054413 -0.000436
0.185669 0.062317 -0.000525
0.221313 0.067871 -0.000443
0.253906 0.070923 -0.000247
0.285400 0.072693 0.000235
0.314941 0.073730 0.000873
0.342529 0.073547 0.001653
0.368896 0.071594 0.002563
0.393311 0.070862 0.003494
0.417236 0.070740 0.004475
0.439453 0.071655 0.005432
0.460693 0.073975 0.006371
0.481201 0.078552 0.007206
0.500488 0.084900 0.007866
0.519043 0.091919 0.008545
0.537598 0.101074 0.009216
0.554688 0.111511 0.010063
0.571289 0.124695 0.010529
0.587891 0.137573 0.010681
0.604004 0.151733 0.010651
0.619141 0.165527 0.010208
0.633301 0.181274 0.009216
0.647461 0.195557 0.008339
0.660645 0.210693 0.007046
0.673340 0.224854 0.006229
0.685547 0.239502 0.005302
0.013245 0.053345 0.001085
0.013176 0.052979 0.001080
0.013542 0.053375 0.001083
0.020706 0.054443 0.000987
0.030960 0.056702 0.000871
0.058441 0.061646 0.000559
0.102783 0.071411 0.000005
0.147949 0.080383 -0.000502
0.187866 0.087402 -0.000771
0.223389 0.092224 -0.000803
0.256104 0.095215 -0.000609
0.287354 0.096802 -0.000231
0.316895 0.097656 0.000320
0.344727 0.098389 0.000987
0.371094 0.097717 0.001790
0.395752 0.095947 0.002710
0.418945 0.093628 0.003695
0.441162 0.093750 0.004616
0.462402 0.095642 0.005455
0.482178 0.098999 0.006218
0.501953 0.103088 0.006958
0.520996 0.110901 0.007423
0.539551 0.120911 0.007660
0.556641 0.130615 0.007935
0.573242 0.140869 0.008278
0.589355 0.152466 0.008492
0.605469 0.164307 0.008545
0.620605 0.177612 0.008186
0.635254 0.191406 0.007244
0.648926 0.204956 0.006367
0.661621 0.218750 0.004807
0.674316 0.232178 0.003841
0.687012 0.246094 0.002769
0.027008 0.092285 0.001510
0.027008 0.092285 0.001510
0.028122 0.092529 0.001491
0.034607 0.093506 0.001380
0.044403 0.094788 0.001224
0.068604 0.098877 0.000784
0.108826 0.106323 0.000004
0.152710 0.114624 -0.000807
0.192261 0.121094 -0.001354
0.227417 0.125854 -0.001635
0.260254 0.129150 -0.001690
0.291016 0.131348 -0.001530
0.321045 0.133301 -0.001201
0.348633 0.133911 -0.000701
0.375488 0.134644 -0.000093
0.400146 0.134155 0.000665
0.423340 0.133423 0.001484
0.445557 0.132690 0.002363
0.466309 0.131470 0.003283
0.486084 0.130615 0.004211
0.505371 0.133789 0.004845
0.524414 0.137329 0.005432
0.541992 0.144287 0.005611
0.560059 0.151855 0.005653
0.576172 0.161133 0.005447
0.592285 0.171875 0.005554
0.608398 0.182983 0.005196
0.623535 0.194336 0.004829
0.637695 0.206421 0.004375
0.650879 0.218140 0.003489
0.664062 0.229736 0.002239
0.675781 0.242310 0.001106
0.687988 0.254639 0.000120
0.044312 0.128174 0.001234
0.044312 0.128174 0.001234
0.045288 0.128418 0.001208
0.050812 0.129272 0.001068
0.058960 0.130737 0.000869
0.079346 0.134277 0.000300
0.115723 0.140991 -0.000763
0.158203 0.149170 -0.002007
0.197632 0.156006 -0.002981
0.232422 0.161133 -0.003620
0.265625 0.165405 -0.004032
0.295898 0.168701 -0.004169
0.325928 0.171143 -0.004051
0.354248 0.172729 -0.003796
0.380859 0.173706 -0.003420
0.405762 0.174438 -0.002916
0.429199 0.174438 -0.002254
0.451416 0.174561 -0.001562
0.472412 0.174561 -0.000849
0.492188 0.174072 -0.000040
0.510742 0.173706 0.000774
0.528809 0.173096 0.001633
0.546387 0.176270 0.001980
0.563477 0.180542 0.002155
0.580078 0.187134 0.001989
0.596191 0.194824 0.001615
0.611816 0.203247 0.001374
0.626465 0.213623 0.000865
0.640625 0.223877 0.000209
0.653809 0.234863 -0.000510
0.666504 0.245728 -0.001184
0.678711 0.256104 -0.001968
0.689941 0.267090 -0.003132
0.060394 0.159424 0.000108
0.061249 0.159546 0.000078
0.062378 0.159790 0.000041
0.065674 0.160278 -0.000077
0.071594 0.161377 -0.000299
0.089111 0.165161 -0.001024
0.123657 0.172607 -0.002514
0.164429 0.181396 -0.004242
0.203247 0.188721 -0.005684
0.237915 0.194702 -0.006428
0.270996 0.199829 -0.006691
0.301758 0.203613 -0.006737
0.331543 0.206787 -0.006725
0.359863 0.209351 -0.006649
0.386475 0.211304 -0.006531
0.411865 0.212769 -0.006355
0.435303 0.213623 -0.006149
0.457764 0.214233 -0.005894
0.478760 0.214966 -0.005615
0.498779 0.215454 -0.005299
0.517090 0.215820 -0.004955
0.535645 0.216553 -0.004692
0.552734 0.216797 -0.004200
0.569336 0.216797 -0.003569
0.584961 0.219360 -0.003351
0.600586 0.223633 -0.003471
0.615234 0.228760 -0.003550
0.629883 0.236328 -0.003817
0.643555 0.243774 -0.004021
0.656250 0.252197 -0.004128
0.669434 0.262207 -0.004757
0.681152 0.271973 -0.004955
0.692383 0.281738 -0.005241
0.075317 0.186401 -0.001804
0.075867 0.186523 -0.001829
0.076721 0.186646 -0.001872
0.078857 0.187256 -0.001993
0.084045 0.188721 -0.002296
0.098450 0.191650 -0.003040
0.130615 0.199341 -0.004868
0.169800 0.208496 -0.006950
0.208618 0.217163 -0.008377
0.243042 0.223755 -0.008713
0.276123 0.229248 -0.008949
0.307129 0.234009 -0.009117
0.336426 0.238159 -0.009224
0.365234 0.241211 -0.009224
0.391846 0.244019 -0.009193
0.417480 0.246460 -0.009125
0.441162 0.248291 -0.009003
0.463867 0.249878 -0.008858
0.484863 0.250977 -0.008675
0.504883 0.251953 -0.008484
0.524414 0.252930 -0.008263
0.541992 0.254395 -0.008110
0.559570 0.255127 -0.007889
0.575684 0.255615 -0.007668
0.591309 0.256592 -0.007492
0.606445 0.257324 -0.007267
0.620117 0.258545 -0.007114
0.634277 0.263428 -0.007313
0.647949 0.268311 -0.007526
0.660156 0.273926 -0.007626
0.672363 0.281006 -0.007439
0.684082 0.288574 -0.007778
0.695312 0.296875 -0.008133
0.088440 0.210693 -0.004269
0.089111 0.210815 -0.004299
0.089722 0.211060 -0.004356
0.090942 0.211060 -0.004410
0.094727 0.211914 -0.004650
0.108521 0.215454 -0.005642
0.137695 0.223511 -0.007793
0.175537 0.233398 -0.009697
0.213257 0.242310 -0.010468
0.248047 0.249878 -0.010956
0.280762 0.256104 -0.011322
0.311768 0.261719 -0.011620
0.341553 0.266357 -0.011818
0.369873 0.270264 -0.011940
0.396973 0.273438 -0.011978
0.422607 0.276123 -0.011955
0.446777 0.278809 -0.011925
0.468994 0.280762 -0.011856
0.489990 0.282959 -0.011780
0.510254 0.283936 -0.011589
0.529785 0.285889 -0.011505
0.548340 0.287598 -0.011398
0.564941 0.288574 -0.011215
0.581543 0.289551 -0.011032
0.597168 0.291504 -0.010971
0.612305 0.292725 -0.010803
0.625977 0.293457 -0.010620
0.639160 0.294922 -0.010544
0.652344 0.296143 -0.010414
0.664551 0.300049 -0.010567
0.676758 0.304443 -0.010696
0.687500 0.309570 -0.010834
0.698730 0.316895 -0.011452
0.100708 0.233398 -0.007389
0.101135 0.233643 -0.007439
0.101685 0.233765 -0.007484
0.102722 0.233765 -0.007538
0.105957 0.234497 -0.007782
0.116516 0.237427 -0.008682
0.143799 0.245117 -0.010590
0.181152 0.255859 -0.011879
0.218384 0.265381 -0.012619
0.253174 0.273682 -0.013260
0.285156 0.280518 -0.013748
0.316895 0.286621 -0.014130
0.346191 0.291748 -0.014450
0.375000 0.296387 -0.014687
0.402100 0.300293 -0.014832
0.427734 0.303955 -0.014954
0.451904 0.307129 -0.015038
0.474609 0.309570 -0.014999
0.496094 0.311768 -0.014954
0.516113 0.313232 -0.014847
0.535645 0.315674 -0.014832
0.554199 0.317871 -0.014793
0.570801 0.318604 -0.014618
0.587402 0.320557 -0.014542
0.603027 0.322266 -0.014473
0.618652 0.323975 -0.014381
0.631348 0.324707 -0.014244
0.645508 0.326416 -0.014168
0.658203 0.327881 -0.014091
0.669922 0.329346 -0.014038
0.681152 0.331299 -0.014030
0.691895 0.334229 -0.014168
0.702637 0.339111 -0.014580
0.111572 0.253906 -0.010643
0.112061 0.254150 -0.010674
0.112366 0.253906 -0.010643
0.113220 0.254395 -0.010765
0.115051 0.255127 -0.010918
0.125000 0.257812 -0.011864
0.149414 0.265381 -0.012924
0.185303 0.276611 -0.013916
0.222778 0.286621 -0.014801
0.257324 0.295410 -0.015564
0.290283 0.303223 -0.016205
0.321289 0.309326 -0.016693
0.350830 0.315674 -0.017181
0.379395 0.320801 -0.017532
0.406494 0.325195 -0.017776
0.432861 0.329102 -0.017944
0.456543 0.332764 -0.018127
0.479248 0.335205 -0.018158
0.500977 0.338135 -0.018219
0.521484 0.340820 -0.018250
0.540527 0.343018 -0.018250
0.559082 0.345215 -0.018234
0.576660 0.347412 -0.018234
0.592773 0.349121 -0.018173
0.608398 0.350830 -0.018112
0.623535 0.352783 -0.018082
0.637695 0.354004 -0.017990
0.650879 0.355957 -0.017990
0.663574 0.357666 -0.017960
0.675293 0.359375 -0.017960
0.687012 0.361328 -0.018005
0.697266 0.363037 -0.018005
0.707520 0.364502 -0.017990
0.121643 0.272705 -0.013428
0.121826 0.272949 -0.013443
0.122253 0.273193 -0.013451
0.123291 0.273438 -0.013496
0.125244 0.273926 -0.013512
0.134521 0.277344 -0.014130
0.155640 0.284180 -0.014786
0.190674 0.295654 -0.015915
0.227051 0.306641 -0.016983
0.261719 0.316162 -0.017960
0.294189 0.324219 -0.018707
0.325195 0.331055 -0.019333
0.355469 0.337402 -0.019882
0.383301 0.343018 -0.020340
0.410889 0.348145 -0.020752
0.437012 0.352539 -0.021027
0.461182 0.356201 -0.021225
0.484131 0.359863 -0.021423
0.505859 0.363037 -0.021576
0.525879 0.365479 -0.021622
0.545898 0.368652 -0.021759
0.563477 0.370850 -0.021790
0.581055 0.373047 -0.021805
0.597656 0.375732 -0.021896
0.613281 0.377441 -0.021896
0.628418 0.379150 -0.021835
0.642578 0.381592 -0.021927
0.656250 0.383789 -0.021988
0.668945 0.385010 -0.021896
0.680176 0.386963 -0.021988
0.691406 0.388672 -0.021973
0.702148 0.390625 -0.022049
0.712402 0.392334 -0.022079
0.131104 0.290527 -0.014465
0.131470 0.290771 -0.014473
0.132202 0.291016 -0.014503
0.133667 0.291748 -0.014793
0.136108 0.292480 -0.014885
0.143555 0.295166 -0.015244
0.162964 0.301758 -0.016022
0.194458 0.312988 -0.017456
0.231567 0.324951 -0.018982
0.266602 0.335205 -0.020187
0.298096 0.343506 -0.021149
0.329346 0.351074 -0.021973
0.359131 0.357666 -0.022614
0.387939 0.363770 -0.023193
0.414795 0.368896 -0.023636
0.440918 0.374023 -0.024078
0.465332 0.378174 -0.024368
0.488770 0.382080 -0.024643
0.510254 0.385742 -0.024902
0.531250 0.388916 -0.025070
0.550293 0.391846 -0.025223
0.568848 0.394287 -0.025314
0.585938 0.396729 -0.025406
0.602539 0.399902 -0.025589
0.618164 0.401855 -0.025620
0.633301 0.404297 -0.025726
0.647949 0.406494 -0.025803
0.660645 0.408936 -0.025909
0.673828 0.410645 -0.025909
0.685547 0.413086 -0.026108
0.696289 0.414551 -0.026093
0.707520 0.416748 -0.026230
0.717285 0.418701 -0.026306
0.141479 0.307861 -0.015686
0.142334 0.308105 -0.015717
0.143066 0.308594 -0.015762
0.144531 0.309082 -0.015808
0.147461 0.310303 -0.015945
0.152222 0.312256 -0.016556
0.170898 0.318848 -0.017502
0.199097 0.329346 -0.019012
0.235962 0.342041 -0.020859
0.269531 0.352295 -0.022430
0.302002 0.361816 -0.023682
0.333252 0.370117 -0.024658
0.363281 0.376953 -0.025375
0.391846 0.383301 -0.026047
0.419189 0.388916 -0.026611
0.445068 0.394043 -0.027130
0.469238 0.398438 -0.027512
0.492432 0.402832 -0.027893
0.514648 0.406982 -0.028229
0.535156 0.410156 -0.028458
0.554688 0.413574 -0.028687
0.573242 0.416504 -0.028870
0.591309 0.419678 -0.029099
0.607422 0.422363 -0.029236
0.623047 0.424561 -0.029358
0.637695 0.427490 -0.029556
0.651855 0.429443 -0.029633
0.665527 0.432129 -0.029816
0.678223 0.434570 -0.029984
0.690430 0.436279 -0.030029
0.700684 0.438477 -0.030197
0.711426 0.440674 -0.030350
0.722168 0.442871 -0.030502
0.152466 0.324707 -0.016998
0.153442 0.325195 -0.017059
0.154175 0.325439 -0.017059
0.156006 0.326416 -0.017395
0.159546 0.327637 -0.017715
0.164551 0.329590 -0.018082
0.179810 0.335693 -0.019196
0.205200 0.345459 -0.020828
0.238525 0.357422 -0.022995
0.273438 0.368896 -0.024933
0.305420 0.378662 -0.026154
0.336182 0.387207 -0.027222
0.366699 0.394531 -0.028076
0.395508 0.401367 -0.028885
0.422607 0.407715 -0.029617
0.448975 0.413086 -0.030167
0.473633 0.417725 -0.030655
0.496826 0.422363 -0.031113
0.519043 0.426514 -0.031494
0.539062 0.430176 -0.031830
0.558594 0.433594 -0.032135
0.576660 0.436768 -0.032349
0.594727 0.439697 -0.032593
0.611816 0.443115 -0.032898
0.627441 0.445557 -0.033020
0.642090 0.448486 -0.033295
0.656250 0.450928 -0.033447
0.669434 0.453369 -0.033661
0.682129 0.456055 -0.033875
0.693848 0.458496 -0.034088
0.705566 0.460449 -0.034210
0.715820 0.462646 -0.034393
0.726074 0.465088 -0.034607
0.164307 0.341553 -0.019501
0.165283 0.341553 -0.019531
0.166748 0.342285 -0.019623
0.168579 0.343262 -0.019730
0.172119 0.344727 -0.020020
0.177979 0.347168 -0.020218
0.187378 0.351074 -0.021317
0.212769 0.361328 -0.023132
0.242676 0.372314 -0.025574
0.276611 0.384277 -0.027237
0.308594 0.394043 -0.028549
0.340088 0.403076 -0.029709
0.370117 0.410889 -0.030716
0.398682 0.417969 -0.031616
0.426514 0.425049 -0.032501
0.452393 0.430420 -0.033142
0.477051 0.435547 -0.033722
0.500488 0.440430 -0.034271
0.522461 0.444824 -0.034760
0.542969 0.448730 -0.035156
0.562012 0.452393 -0.035492
0.580566 0.456055 -0.035889
0.598633 0.459229 -0.036194
0.615234 0.462158 -0.036438
0.630859 0.465332 -0.036713
0.645996 0.468018 -0.036987
0.660156 0.470947 -0.037262
0.673828 0.473877 -0.037506
0.686523 0.475830 -0.037659
0.697754 0.478516 -0.037933
0.709473 0.481201 -0.038208
0.719727 0.483643 -0.038452
0.729980 0.485352 -0.038605
0.176880 0.357422 -0.021790
0.178345 0.358154 -0.021881
0.179932 0.358887 -0.021988
0.182007 0.359863 -0.022095
0.184937 0.361084 -0.022491
0.191772 0.364014 -0.023376
0.198975 0.367188 -0.023849
0.219727 0.375732 -0.025681
0.247925 0.386719 -0.027786
0.278564 0.397705 -0.029343
0.312256 0.408447 -0.030838
0.342773 0.417725 -0.032166
0.372803 0.426270 -0.033356
0.401855 0.434082 -0.034393
0.428955 0.440674 -0.035278
0.455811 0.447021 -0.036102
0.480713 0.452637 -0.036835
0.503906 0.457520 -0.037415
0.526367 0.462158 -0.037964
0.546387 0.466064 -0.038391
0.566406 0.469971 -0.038818
0.584473 0.473633 -0.039246
0.602539 0.477051 -0.039642
0.619141 0.480469 -0.039978
0.635254 0.483643 -0.040314
0.649902 0.486328 -0.040588
0.663574 0.489502 -0.040924
0.677246 0.491943 -0.041138
0.689941 0.494629 -0.041443
0.701660 0.496826 -0.041626
0.713379 0.499512 -0.041931
0.724121 0.501953 -0.042175
0.733887 0.504395 -0.042450
0.190918 0.374268 -0.024033
0.192261 0.375000 -0.024384
0.194092 0.375732 -0.024780
0.196289 0.376465 -0.025009
0.199463 0.377930 -0.025223
0.204712 0.380371 -0.025543
0.212891 0.384033 -0.026886
0.226807 0.389893 -0.027863
0.253418 0.400635 -0.029999
0.282471 0.411621 -0.031616
0.314453 0.422363 -0.033173
0.345459 0.431641 -0.034546
0.375977 0.440674 -0.035858
0.404297 0.448486 -0.036987
0.432617 0.455811 -0.038055
0.458740 0.461914 -0.038910
0.483398 0.467773 -0.039703
0.506836 0.473145 -0.040405
0.529297 0.477783 -0.041016
0.549805 0.482422 -0.041565
0.568848 0.486084 -0.042023
0.587891 0.489990 -0.042480
0.605469 0.493408 -0.042847
0.622559 0.497070 -0.043274
0.638184 0.500000 -0.043579
0.653320 0.503418 -0.043976
0.667480 0.506348 -0.044312
0.680664 0.509277 -0.044617
0.693359 0.512207 -0.044952
0.705078 0.514648 -0.045166
0.716797 0.517090 -0.045502
0.727051 0.520020 -0.045776
0.737793 0.522461 -0.046112
0.205566 0.391113 -0.027527
0.207031 0.391846 -0.027618
0.208496 0.392578 -0.027740
0.210327 0.393066 -0.027863
0.213623 0.394775 -0.028381
0.219116 0.396973 -0.029526
0.226562 0.400391 -0.030121
0.235718 0.404541 -0.030716
0.259521 0.414307 -0.032196
0.286621 0.424805 -0.033813
0.317139 0.435303 -0.035461
0.348877 0.445312 -0.037018
0.377686 0.454346 -0.038391
0.407471 0.462646 -0.039642
0.434570 0.469971 -0.040771
0.461182 0.476318 -0.041687
0.486084 0.482422 -0.042511
0.509766 0.487793 -0.043274
0.531738 0.492920 -0.043915
0.552734 0.497314 -0.044464
0.572754 0.501465 -0.044983
0.590820 0.505371 -0.045441
0.608398 0.508789 -0.045898
0.625000 0.512695 -0.046356
0.641602 0.516113 -0.046722
0.656250 0.519531 -0.047150
0.670898 0.522949 -0.047546
0.684082 0.525391 -0.047821
0.696777 0.528809 -0.048218
0.708984 0.531250 -0.048492
0.720215 0.533691 -0.048798
0.730469 0.536621 -0.049103
0.740723 0.539062 -0.049469
0.220093 0.407471 -0.031006
0.221802 0.408203 -0.031143
0.223389 0.409180 -0.031311
0.225952 0.410400 -0.031494
0.228882 0.411865 -0.031982
0.233154 0.413574 -0.032257
0.240845 0.416992 -0.032806
0.249268 0.420898 -0.033386
0.266357 0.427979 -0.034546
0.291748 0.437744 -0.036102
0.319824 0.447754 -0.037720
0.350342 0.458008 -0.039368
0.380371 0.467529 -0.040894
0.409668 0.476074 -0.042236
0.437256 0.483398 -0.043335
0.463867 0.489990 -0.044281
0.488770 0.496338 -0.045197
0.512207 0.501953 -0.046021
0.534180 0.506836 -0.046661
0.555176 0.511719 -0.047302
0.574707 0.516113 -0.047821
0.593262 0.520020 -0.048340
0.611328 0.523926 -0.048767
0.628418 0.527832 -0.049286
0.643555 0.530762 -0.049622
0.659180 0.534668 -0.050110
0.673340 0.537598 -0.050507
0.687012 0.541016 -0.050934
0.699707 0.543945 -0.051239
0.711914 0.546875 -0.051575
0.723633 0.549805 -0.051971
0.733887 0.551758 -0.052155
0.743652 0.554688 -0.052521
0.235352 0.423828 -0.034027
0.236572 0.424072 -0.034027
0.238037 0.424805 -0.034180
0.240356 0.426270 -0.034393
0.243530 0.427734 -0.034637
0.247314 0.429199 -0.034882
0.254150 0.432129 -0.035339
0.262207 0.435791 -0.035950
0.273682 0.440674 -0.036774
0.296875 0.449951 -0.038300
0.322998 0.459717 -0.039917
0.352539 0.469971 -0.041656
0.383057 0.479492 -0.043182
0.411377 0.488281 -0.044586
0.439941 0.496338 -0.045776
0.465820 0.503418 -0.046844
0.491455 0.509277 -0.047729
0.514648 0.515137 -0.048553
0.536621 0.520508 -0.049255
0.557617 0.525391 -0.049896
0.577148 0.529785 -0.050476
0.596191 0.534180 -0.051117
0.614258 0.538086 -0.051575
0.630371 0.541504 -0.051971
0.646973 0.545410 -0.052460
0.661621 0.548340 -0.052826
0.676270 0.551758 -0.053284
0.689453 0.555176 -0.053711
0.702148 0.558594 -0.054108
0.714355 0.561035 -0.054382
0.726074 0.563965 -0.054779
0.736816 0.566895 -0.055115
0.746582 0.569336 -0.055450
0.250488 0.439941 -0.035645
0.251709 0.440430 -0.035919
0.253418 0.441162 -0.036041
0.255615 0.442139 -0.036224
0.258301 0.443604 -0.036682
0.261719 0.445312 -0.037201
0.267822 0.447998 -0.037903
0.275635 0.451416 -0.038666
0.283447 0.454346 -0.039246
0.302979 0.462402 -0.040619
0.327637 0.471924 -0.042267
0.354980 0.481934 -0.043884
0.384277 0.490967 -0.045380
0.413574 0.500000 -0.046783
0.440918 0.508301 -0.048096
0.468018 0.515137 -0.049133
0.492676 0.521973 -0.050110
0.516602 0.527344 -0.050903
0.538574 0.532715 -0.051666
0.559570 0.538086 -0.052399
0.580078 0.542969 -0.053040
0.598633 0.546875 -0.053589
0.616211 0.551270 -0.054169
0.632812 0.554688 -0.054596
0.648926 0.558105 -0.055023
0.664062 0.562012 -0.055481
0.678711 0.565430 -0.055878
0.692383 0.569336 -0.056427
0.705078 0.571777 -0.056732
0.716797 0.574707 -0.057129
0.728027 0.577637 -0.057495
0.738770 0.580566 -0.057861
0.749023 0.583008 -0.058197
0.265137 0.455566 -0.034363
0.266602 0.456543 -0.034546
0.267822 0.457031 -0.035126
0.270264 0.458008 -0.035828
0.272949 0.459229 -0.036682
0.276367 0.460938 -0.037079
0.281006 0.462891 -0.037537
0.287842 0.465820 -0.038971
0.295898 0.469238 -0.040192
0.309326 0.474609 -0.042114
0.332520 0.483643 -0.044281
0.357910 0.492676 -0.045959
0.385986 0.501953 -0.047485
0.415283 0.511230 -0.048981
0.442871 0.519531 -0.050232
0.469482 0.527344 -0.051453
0.494873 0.533691 -0.052399
0.518555 0.539551 -0.053284
0.540527 0.545410 -0.054077
0.562012 0.550293 -0.054779
0.582031 0.555176 -0.055481
0.600586 0.559570 -0.056061
0.618652 0.563965 -0.056580
0.634766 0.567871 -0.057098
0.651367 0.571777 -0.057617
0.666504 0.575195 -0.058075
0.680664 0.578125 -0.058441
0.694824 0.582031 -0.058929
0.707520 0.584961 -0.059326
