Tests/FilmEngineTests/Fixtures/ExportBytes/portra-400-displayP3-9.cube
# Exported from Dye: Modelled · Linen 400, Display P3.
# Colour only. This LUT carries no grain, halation, bloom, micro-contrast
# or vignette, so it will look flatter than the app does.
TITLE "Modelled · Linen 400 · push +1.0 · +0.5 EV · 4800 K"
LUT_3D_SIZE 9
DOMAIN_MIN 0.0 0.0 0.0
DOMAIN_MAX 1.0 1.0 1.0

0.000000 0.000000 0.000000
0.015686 0.003262 -0.000039
0.184814 0.042755 -0.000312
0.314209 0.055267 0.001189
0.416504 0.054047 0.004902
0.497803 0.052765 0.009857
0.568359 0.092285 0.014191
0.630371 0.155640 0.014008
0.682129 0.221191 0.013527
0.002125 0.008667 0.000205
0.019089 0.012520 0.000099
0.185059 0.052032 -0.000407
0.314453 0.064026 0.001049
0.416504 0.061890 0.004704
0.499023 0.070923 0.008522
0.570312 0.113770 0.011795
0.632812 0.173096 0.010818
0.684570 0.233643 0.007874
0.044312 0.128174 0.001234
0.058960 0.130737 0.000869
0.197632 0.156006 -0.002981
0.325928 0.171143 -0.004051
0.429199 0.174438 -0.002254
0.510742 0.173706 0.000774
0.580078 0.187134 0.001989
0.640625 0.223877 0.000209
0.689941 0.267090 -0.003132
0.100708 0.233398 -0.007389
0.105957 0.234497 -0.007782
0.218384 0.265381 -0.012619
0.346191 0.291748 -0.014450
0.451904 0.307129 -0.015038
0.535645 0.315674 -0.014832
0.603027 0.322266 -0.014473
0.658203 0.327881 -0.014091
0.702637 0.339111 -0.014580
0.141479 0.307861 -0.015686
0.147461 0.310303 -0.015945
0.235962 0.342041 -0.020859
0.363281 0.376953 -0.025375
0.469238 0.398438 -0.027512
0.554688 0.413574 -0.028687
0.623047 0.424561 -0.029358
0.678223 0.434570 -0.029984
0.722168 0.442871 -0.030502
0.190918 0.374268 -0.024033
0.199463 0.377930 -0.025223
0.253418 0.400635 -0.029999
0.375977 0.440674 -0.035858
0.483398 0.467773 -0.039703
0.568848 0.486084 -0.042023
0.638184 0.500000 -0.043579
0.693359 0.512207 -0.044952
0.737793 0.522461 -0.046112
0.250488 0.439941 -0.035645
0.258301 0.443604 -0.036682
0.283447 0.454346 -0.039246
0.384277 0.490967 -0.045380
0.492676 0.521973 -0.050110
0.580078 0.542969 -0.053040
0.648926 0.558105 -0.055023
0.705078 0.571777 -0.056732
0.749023 0.583008 -0.058197
0.307373 0.500488 -0.025269
0.313232 0.503418 -0.028214
0.331055 0.510742 -0.035217
0.394287 0.534668 -0.049133
0.499268 0.566895 -0.058716
0.587891 0.590332 -0.062195
0.657715 0.607422 -0.064575
0.712891 0.621094 -0.066406
0.757324 0.633301 -0.068054
0.358643 0.554688 0.028229
0.363281 0.556641 0.025330
0.375732 0.562012 0.018295
0.412354 0.576172 0.000108
0.504395 0.606445 -0.037628
0.593750 0.631348 -0.060242
0.663086 0.649414 -0.070129
0.719238 0.664062 -0.074646
0.764648 0.676270 -0.076538
-0.000190 0.001455 0.012711
0.017517 0.005257 0.012794
0.185791 0.045227 0.012016
0.314209 0.059387 0.014229
0.415771 0.060089 0.019913
0.497314 0.062927 0.027008
0.566406 0.101562 0.035461
0.627930 0.163086 0.042877
0.679688 0.227295 0.048676
0.002623 0.012794 0.012047
0.021393 0.017258 0.012093
0.186157 0.056976 0.011108
0.314453 0.068848 0.013054
0.416016 0.067444 0.017899
0.498535 0.079712 0.024414
0.569336 0.121765 0.030273
0.630371 0.179565 0.036652
0.682129 0.239136 0.042206
0.046844 0.133911 0.009758
0.062439 0.136597 0.009560
0.199463 0.161987 0.004963
0.326904 0.177612 0.003859
0.429932 0.182373 0.006691
0.510254 0.182129 0.011696
0.579102 0.193115 0.016693
0.638672 0.228638 0.018845
0.687988 0.271484 0.022522
0.101379 0.234863 -0.002991
0.107178 0.236450 -0.003490
0.220459 0.268066 -0.009315
0.347168 0.294189 -0.012306
0.451904 0.309326 -0.013580
0.535156 0.318604 -0.013680
0.602539 0.325439 -0.012321
0.657227 0.331787 -0.010506
0.701172 0.342041 -0.010063
0.141846 0.308594 -0.012711
0.147949 0.311035 -0.012978
0.237549 0.343506 -0.019913
0.363525 0.377930 -0.025528
0.469727 0.399658 -0.027695
0.554688 0.414551 -0.028885
0.622559 0.426514 -0.029678
0.677246 0.436035 -0.030273
0.720703 0.444824 -0.030869
0.191162 0.375000 -0.020508
0.199463 0.378418 -0.022583
0.254150 0.401367 -0.030106
0.376221 0.441650 -0.036041
0.483154 0.468262 -0.039795
0.568848 0.486328 -0.042084
0.637695 0.500977 -0.043732
0.692871 0.512207 -0.044952
0.736816 0.522949 -0.046234
0.250244 0.440430 -0.024704
0.258057 0.444336 -0.026566
0.283447 0.455078 -0.032196
0.383789 0.491943 -0.045532
0.492676 0.522949 -0.050293
0.578613 0.543457 -0.053162
0.648438 0.559570 -0.055267
0.704102 0.572266 -0.056885
0.748047 0.583984 -0.058319
0.307373 0.501465 -0.001834
0.313232 0.504395 -0.004795
0.330811 0.511719 -0.013138
0.394531 0.535645 -0.036102
0.499268 0.568359 -0.056854
0.587402 0.591797 -0.062500
0.657227 0.608398 -0.064819
0.712402 0.622559 -0.066650
0.756836 0.634277 -0.068298
0.358398 0.555176 0.057404
0.363037 0.557617 0.054840
0.375732 0.562988 0.048981
0.412598 0.576660 0.029694
0.504395 0.607422 -0.010246
0.593262 0.632324 -0.046692
0.663574 0.650879 -0.064636
0.719238 0.665527 -0.074158
0.763672 0.677734 -0.076782
-0.006584 0.013077 0.155029
0.012985 0.017044 0.154907
0.180542 0.062744 0.152344
0.307129 0.083801 0.151733
0.408447 0.090515 0.152710
0.489746 0.103516 0.155029
0.559570 0.138550 0.158936
0.621094 0.192139 0.163452
0.673828 0.250488 0.167847
-0.001718 0.033264 0.154785
0.018158 0.038635 0.155151
0.181274 0.077698 0.151733
0.307373 0.094055 0.150391
0.408691 0.101440 0.151489
0.490723 0.119202 0.154053
0.562012 0.156738 0.157471
0.623535 0.207031 0.161621
0.676270 0.262207 0.166016
0.045685 0.148804 0.157959
0.061157 0.151611 0.157715
0.195801 0.179810 0.152100
0.320312 0.198975 0.148926
0.422363 0.207397 0.148193
0.503906 0.211548 0.150024
0.571289 0.220459 0.152588
0.631348 0.252930 0.156250
0.681641 0.292969 0.160156
0.099609 0.242432 0.152954
0.105225 0.244507 0.153076
0.216064 0.276611 0.145264
0.340332 0.305908 0.138916
0.443848 0.323486 0.136475
0.526855 0.335449 0.136963
0.594238 0.344727 0.139038
0.649414 0.352539 0.142334
0.694336 0.363525 0.147095
0.139893 0.313965 0.138184
0.145630 0.315918 0.137695
0.234619 0.349609 0.128540
0.357178 0.385742 0.118713
0.462158 0.410645 0.113098
0.545410 0.426514 0.111450
0.614258 0.439941 0.112549
0.669922 0.451416 0.115051
0.713867 0.462158 0.120178
0.187866 0.377686 0.110229
0.197021 0.382080 0.109192
0.252197 0.406006 0.101196
0.372314 0.447754 0.085510
0.477539 0.475830 0.074280
0.562500 0.495605 0.069214
0.630859 0.511719 0.068726
0.686035 0.524902 0.070801
0.730469 0.537598 0.076660
0.248291 0.442871 0.077332
0.256104 0.446533 0.075073
0.281738 0.458252 0.067627
0.382568 0.495850 0.042297
0.489258 0.527344 0.013565
0.575684 0.549805 -0.006588
0.644531 0.566895 -0.012871
0.700195 0.581543 -0.011406
0.743652 0.594238 -0.005833
0.305908 0.503906 0.088989
0.311768 0.506348 0.087219
0.329590 0.514160 0.082397
0.393799 0.539062 0.063965
0.497803 0.572266 0.029312
0.584961 0.596191 -0.001582
0.654785 0.614258 -0.029007
0.710449 0.628418 -0.048096
0.754883 0.641113 -0.061005
0.357178 0.557129 0.117371
0.361816 0.559082 0.115906
0.374512 0.563965 0.112305
0.412354 0.579590 0.103271
0.503906 0.609863 0.081360
0.591797 0.635742 0.054840
0.661621 0.654297 0.025742
0.718262 0.669922 -0.003872
0.762207 0.682617 -0.031082
-0.023590 0.012703 0.276123
0.003166 0.020172 0.275391
0.176392 0.071228 0.272949
0.301270 0.098389 0.271484
0.402344 0.116516 0.270996
0.484863 0.140381 0.272705
0.556152 0.178101 0.275879
0.617676 0.225586 0.280029
0.669922 0.276123 0.284180
-0.012093 0.061707 0.280273
0.013435 0.067261 0.279785
0.179077 0.103699 0.275391
0.302979 0.123230 0.272461
0.404053 0.136475 0.272217
0.486816 0.159180 0.272949
0.558105 0.194214 0.276123
0.619629 0.239014 0.280029
0.671875 0.287598 0.283936
0.035645 0.164795 0.292480
0.058594 0.168701 0.291260
0.194214 0.200195 0.285156
0.317383 0.223267 0.281250
0.418701 0.236694 0.278564
0.499756 0.244385 0.277832
0.567383 0.253418 0.278320
0.626953 0.281006 0.280273
0.676758 0.316650 0.282959
0.090942 0.249268 0.298828
0.098938 0.251465 0.298096
0.212280 0.286377 0.291016
0.334961 0.318115 0.284912
0.437988 0.339355 0.281250
0.520996 0.353271 0.279541
0.588867 0.364746 0.279053
0.644043 0.374512 0.279297
0.689941 0.384521 0.280518
0.131836 0.317383 0.297852
0.137817 0.319824 0.296875
0.229980 0.355713 0.289795
0.351318 0.394775 0.282227
0.454834 0.420898 0.277344
0.539062 0.440186 0.274902
0.607422 0.455078 0.273438
0.663086 0.467529 0.273438
0.708496 0.478760 0.273926
0.180054 0.380615 0.289307
0.188965 0.384521 0.288330
0.246582 0.410889 0.283691
0.365723 0.454834 0.274658
0.469482 0.485596 0.268311
0.554688 0.507324 0.264648
0.623047 0.524902 0.262451
0.679688 0.539551 0.261963
0.724609 0.552246 0.262695
0.239868 0.445557 0.273438
0.247803 0.449219 0.272461
0.276855 0.463135 0.270264
0.376709 0.503418 0.261963
0.481934 0.537598 0.254395
0.567383 0.561523 0.249756
0.636719 0.580566 0.247314
0.692871 0.595703 0.245972
0.737305 0.609863 0.245483
0.299805 0.506348 0.252197
0.305664 0.509277 0.252441
0.323486 0.517090 0.251221
0.388916 0.544434 0.244385
0.491699 0.579590 0.236450
0.578125 0.605469 0.230591
0.648438 0.625000 0.226807
0.703613 0.641113 0.225708
0.748535 0.655273 0.225464
0.353760 0.559570 0.227051
0.358154 0.561523 0.226685
0.371094 0.566895 0.225708
0.410400 0.583008 0.221191
0.500977 0.615234 0.212036
0.587891 0.641602 0.205444
0.657715 0.662109 0.202026
0.713379 0.678223 0.200073
0.758301 0.692383 0.200073
-0.035583 0.052002 0.386475
0.000159 0.062164 0.385254
0.177246 0.106750 0.382080
0.300293 0.137207 0.380127
0.401855 0.162354 0.380615
0.484863 0.189697 0.382080
0.556152 0.223999 0.385010
0.617188 0.263916 0.388672
0.668945 0.307373 0.392822
-0.020416 0.103027 0.395264
0.013786 0.109558 0.394287
0.182007 0.144897 0.388672
0.303711 0.167358 0.385010
0.404297 0.184082 0.383789
0.487549 0.206665 0.384033
0.558594 0.238892 0.386963
0.619141 0.276123 0.389648
0.670898 0.317139 0.393555
0.020264 0.181763 0.410889
0.052917 0.187256 0.409424
0.195557 0.222534 0.403320
0.316895 0.250000 0.398438
0.418457 0.267334 0.395020
0.499512 0.278564 0.392822
0.566895 0.288574 0.391602
0.625488 0.312256 0.392578
0.675293 0.342773 0.394775
0.075684 0.255127 0.422607
0.090698 0.259033 0.421143
0.211670 0.296875 0.413330
0.332275 0.331299 0.407959
0.434570 0.354492 0.403809
0.517090 0.370850 0.400879
0.585449 0.384033 0.399414
0.641113 0.395264 0.398682
0.687012 0.406250 0.397949
0.118469 0.318604 0.427734
0.128784 0.322754 0.426270
0.228027 0.361084 0.419434
0.347168 0.401367 0.412354
0.450439 0.429932 0.407227
0.534180 0.449951 0.403809
0.602539 0.466553 0.401611
0.658691 0.479980 0.399658
0.704102 0.492432 0.398926
0.168091 0.379639 0.426270
0.178467 0.384521 0.425293
0.242310 0.413574 0.419922
0.360596 0.458496 0.411865
0.463867 0.490967 0.406006
0.548828 0.514160 0.401855
0.617188 0.532227 0.399414
0.673340 0.548340 0.397705
0.719238 0.561035 0.396484
0.229370 0.444092 0.418945
0.237549 0.447998 0.418457
0.271973 0.464355 0.415771
0.372803 0.506348 0.408447
0.476318 0.541016 0.402100
0.561035 0.565918 0.397217
0.629883 0.585938 0.394043
0.686523 0.603027 0.392090
0.731934 0.616699 0.390625
0.289795 0.504883 0.409424
0.295898 0.507812 0.409180
0.314697 0.517090 0.407959
0.382568 0.545898 0.402100
0.485596 0.582520 0.394775
0.571289 0.609375 0.389404
0.641113 0.630371 0.385742
0.697754 0.646484 0.383301
0.742676 0.661133 0.381836
0.343506 0.558594 0.395752
0.348389 0.560547 0.395264
0.362061 0.567383 0.394287
0.403320 0.584473 0.391357
0.493896 0.617188 0.384766
0.580566 0.645020 0.379150
0.650391 0.666504 0.375488
0.706543 0.683594 0.373291
0.751953 0.698242 0.371338
-0.039429 0.114624 0.491943
0.014168 0.124756 0.489502
0.185913 0.163330 0.484131
0.305664 0.193970 0.482178
0.406494 0.220093 0.481201
0.489014 0.245239 0.482178
0.559570 0.273926 0.484863
0.619629 0.307617 0.487061
0.669922 0.342285 0.490234
-0.026215 0.145264 0.498779
0.025879 0.154175 0.496826
0.190063 0.191040 0.490967
0.309326 0.217407 0.487305
0.409180 0.237183 0.484619
0.491455 0.259521 0.484863
0.561523 0.285889 0.486084
0.621094 0.316895 0.488525
0.671387 0.351074 0.491211
0.006504 0.201660 0.513184
0.055389 0.210083 0.510742
0.200928 0.248047 0.504883
0.319336 0.278320 0.499512
0.419922 0.299072 0.496582
0.500977 0.313965 0.493652
0.568848 0.325928 0.491455
0.626465 0.346436 0.492188
0.675293 0.373047 0.493408
0.055634 0.262939 0.526855
0.086487 0.270020 0.524414
0.215332 0.311279 0.517578
0.332764 0.346191 0.511719
0.433594 0.371826 0.507324
0.516113 0.389893 0.504395
0.583984 0.405029 0.501465
0.639648 0.417725 0.500000
0.686523 0.429199 0.499268
0.102173 0.321045 0.534668
0.116577 0.325439 0.533203
0.229248 0.369141 0.525879
0.345703 0.409180 0.519531
0.447510 0.438965 0.514648
0.531250 0.460449 0.511230
0.599121 0.477539 0.508789
0.655762 0.492676 0.506348
0.701660 0.506348 0.505371
0.155396 0.379150 0.537109
0.166992 0.384277 0.535645
0.240723 0.417236 0.531250
0.358398 0.462891 0.524414
0.459961 0.495117 0.518555
0.544434 0.520020 0.513672
0.612793 0.539062 0.511719
0.669434 0.555664 0.509766
0.715332 0.569824 0.507324
0.218018 0.442139 0.535645
0.228271 0.447021 0.534668
0.268555 0.466553 0.532715
0.369141 0.508301 0.524902
0.471680 0.543457 0.519043
0.555664 0.569336 0.514648
0.625000 0.589844 0.511230
0.681152 0.606934 0.509277
0.727051 0.622070 0.506836
0.279541 0.502441 0.531250
0.286133 0.505859 0.530762
0.305420 0.514648 0.529297
0.377930 0.545898 0.523926
0.480957 0.583496 0.517578
0.565918 0.611328 0.513184
0.635742 0.632324 0.508789
0.692383 0.649414 0.506348
0.737793 0.665039 0.504395
0.334229 0.556152 0.524414
0.338623 0.558105 0.524414
0.353760 0.564453 0.523438
0.398926 0.583984 0.520020
0.488525 0.617188 0.514160
0.574707 0.645996 0.509277
0.644531 0.667969 0.505859
0.701172 0.685547 0.502441
0.746582 0.700195 0.500488
-0.042480 0.162720 0.585938
0.045715 0.177612 0.583496
0.198486 0.215820 0.578125
0.313965 0.247437 0.574707
0.412842 0.273193 0.572266
0.494873 0.297363 0.572266
0.564453 0.322266 0.572266
0.623047 0.349609 0.574707
0.672852 0.380371 0.576172
-0.032990 0.180908 0.590820
0.053894 0.195801 0.586914
0.201782 0.233521 0.582520
0.316162 0.262939 0.579102
0.415283 0.285645 0.575195
0.496338 0.308105 0.574219
0.565918 0.332275 0.575195
0.624512 0.357666 0.575684
0.673828 0.387207 0.578125
-0.006184 0.222778 0.602051
0.070496 0.236206 0.599121
0.210083 0.275635 0.592773
0.324707 0.308350 0.589355
0.423096 0.331543 0.584473
0.504395 0.349365 0.582031
0.571777 0.363037 0.579590
0.628906 0.382324 0.579102
0.677246 0.406006 0.580078
0.035797 0.273438 0.614746
0.092896 0.285889 0.610840
0.221924 0.328857 0.605469
0.336182 0.364746 0.599609
0.435059 0.391602 0.595703
0.516602 0.411621 0.592773
0.584473 0.427734 0.590332
0.640625 0.441895 0.588379
0.686523 0.454346 0.586426
0.085754 0.325195 0.623535
0.119507 0.335938 0.620605
0.234741 0.380127 0.614258
0.347656 0.419678 0.608398
0.447510 0.449951 0.604492
0.529785 0.472656 0.601074
0.598145 0.490723 0.597168
0.654297 0.506348 0.595215
0.700195 0.520996 0.594238
0.143433 0.380371 0.626953
0.161987 0.388428 0.626465
0.246094 0.425049 0.621582
0.358643 0.468506 0.614746
0.458740 0.501953 0.609375
0.541992 0.526855 0.605957
0.610352 0.546387 0.602539
0.666992 0.562988 0.600586
0.712891 0.577637 0.598633
0.209229 0.442139 0.627930
0.219727 0.446777 0.627441
0.265381 0.468262 0.624512
0.368164 0.511230 0.618164
0.469482 0.546387 0.612793
0.553223 0.573242 0.608398
0.621582 0.594238 0.605469
0.678223 0.611328 0.602539
0.724121 0.626953 0.600586
0.270752 0.500488 0.626953
0.278564 0.504395 0.626465
0.301758 0.515137 0.625000
0.376709 0.547363 0.620117
0.478516 0.585449 0.613770
0.562012 0.612305 0.608887
0.631348 0.634277 0.605957
0.687500 0.651855 0.603027
0.733887 0.666992 0.600586
0.325928 0.553223 0.623047
0.330322 0.555664 0.623047
0.346436 0.562500 0.622070
0.395264 0.583496 0.619141
0.486816 0.618164 0.613281
0.570312 0.646484 0.608887
0.640137 0.668457 0.604980
0.696289 0.686035 0.602051
0.742676 0.701660 0.599609
-0.023575 0.205444 0.663574
0.085510 0.225342 0.662598
0.214233 0.261719 0.657227
0.323730 0.293213 0.654297
0.420410 0.320068 0.652344
0.500977 0.343262 0.650879
0.569824 0.367676 0.650391
0.627441 0.392090 0.651367
0.676270 0.417480 0.651367
-0.015274 0.218018 0.667480
0.088989 0.236816 0.665039
0.216797 0.273682 0.660156
0.325684 0.304199 0.656738
0.422119 0.329834 0.654297
0.502441 0.352539 0.652344
0.570801 0.374756 0.651367
0.628418 0.398438 0.651855
0.677246 0.423828 0.652832
0.005016 0.249268 0.675781
0.101257 0.268555 0.673340
0.223389 0.305908 0.668457
0.332031 0.338867 0.665039
0.428955 0.364258 0.661621
0.508789 0.384033 0.658203
0.576172 0.399902 0.655762
0.632324 0.417969 0.654297
0.680176 0.439941 0.654297
0.038422 0.289795 0.686523
0.114319 0.308594 0.684082
0.233643 0.349365 0.678711
0.341797 0.384766 0.674805
0.438232 0.412598 0.670898
0.519531 0.434082 0.666992
0.585938 0.451660 0.664551
0.642090 0.466553 0.662109
0.687988 0.480225 0.660645
0.081177 0.334717 0.695312
0.131836 0.350830 0.692871
0.244507 0.393799 0.687500
0.352539 0.432373 0.681641
0.449463 0.463135 0.678711
0.530273 0.486572 0.674805
0.598145 0.505859 0.671875
0.653809 0.521973 0.668945
0.699707 0.536133 0.668457
0.135742 0.385010 0.701172
0.156006 0.393555 0.699707
0.254883 0.435303 0.694336
0.362549 0.477295 0.689453
0.459717 0.509277 0.683594
0.541504 0.534668 0.680664
0.608887 0.555176 0.678711
0.664551 0.571777 0.674316
0.710938 0.587402 0.672852
0.201660 0.443604 0.702148
0.214355 0.449463 0.702148
0.265381 0.472900 0.698730
0.370605 0.516602 0.693848
0.469238 0.551270 0.688965
0.551758 0.577637 0.684570
0.619141 0.598633 0.681152
0.675293 0.616699 0.678223
0.721191 0.632324 0.677734
0.264404 0.500977 0.703613
0.272461 0.504883 0.702148
0.301758 0.518555 0.700684
0.378418 0.550781 0.696777
0.478027 0.587402 0.690430
0.560059 0.614746 0.687012
0.628418 0.636719 0.684570
0.684082 0.654297 0.680176
0.730957 0.670410 0.678223
0.318604 0.551758 0.702148
0.324707 0.554688 0.702148
0.340332 0.562012 0.700684
0.393066 0.584473 0.697266
0.485352 0.619629 0.691895
0.567871 0.646973 0.687988
0.636719 0.669434 0.684570
0.692871 0.687500 0.681152
0.739258 0.703125 0.679199
0.038452 0.250488 0.729492
0.127075 0.270508 0.726074
0.233276 0.303711 0.724121
0.335938 0.335205 0.720215
0.429443 0.362793 0.717773
0.508789 0.386230 0.715820
0.575195 0.408691 0.714355
0.632324 0.432373 0.714355
0.680176 0.455811 0.714844
0.043030 0.258057 0.731445
0.128784 0.278809 0.729492
0.234741 0.311768 0.725098
0.337158 0.343262 0.721680
0.430664 0.369385 0.718750
0.509766 0.392822 0.717285
0.576660 0.415283 0.715820
0.633789 0.437500 0.715820
0.681641 0.460693 0.715820
0.058563 0.282715 0.738281
0.135986 0.302734 0.734863
0.240479 0.337158 0.731445
0.342773 0.369629 0.727539
0.436035 0.396484 0.724609
0.514160 0.417236 0.722168
0.580566 0.434326 0.719727
0.636230 0.452637 0.718750
0.683594 0.473145 0.717773
0.077087 0.315186 0.745605
0.146362 0.335938 0.743164
0.248535 0.372070 0.739258
0.350586 0.406982 0.734863
0.444336 0.435791 0.731445
0.522949 0.457520 0.728516
0.588867 0.475830 0.726074
0.645020 0.492188 0.724121
0.690430 0.506348 0.722656
0.095337 0.350586 0.752930
0.158203 0.372314 0.750977
0.258057 0.410400 0.746582
0.359375 0.447510 0.743164
0.453369 0.477783 0.738281
0.532227 0.501465 0.735352
0.599121 0.520996 0.732910
0.654785 0.538086 0.730469
0.700195 0.553223 0.729004
0.134766 0.393555 0.759277
0.176514 0.410400 0.756348
0.266846 0.448242 0.752930
0.368896 0.487305 0.748047
0.462158 0.519531 0.744629
0.542480 0.544922 0.741211
0.609375 0.564941 0.738281
0.664551 0.582520 0.735840
0.710449 0.598145 0.734375
0.197876 0.447510 0.761719
0.214966 0.455322 0.760742
0.274658 0.481934 0.757812
0.377197 0.523926 0.753418
0.470947 0.557617 0.748535
0.551758 0.583496 0.744629
0.618652 0.604492 0.742188
0.674316 0.622559 0.740234
0.720215 0.638672 0.737793
0.260742 0.503418 0.763184
0.268311 0.506348 0.762207
0.301270 0.521973 0.760254
0.384277 0.556641 0.757324
0.479004 0.591797 0.752441
0.560059 0.618164 0.748047
0.626953 0.640137 0.745117
0.683105 0.658691 0.742188
0.729004 0.674316 0.740723
0.314697 0.552246 0.763184
0.321045 0.555176 0.762207
0.337891 0.563477 0.761719
0.391846 0.586426 0.758789
0.485840 0.621582 0.753906
0.566895 0.648926 0.750977
0.635254 0.671387 0.747559
0.690918 0.689941 0.744629
0.736328 0.705078 0.742676
