Tests/FilmEngineTests/Fixtures/ExportBytes/portra-400-displayP3.cube
# Exported from Dye: Modelled · Linen 400, Display P3.
# Colour only. This LUT carries no grain, halation, bloom, micro-contrast
# or vignette, so it will look flatter than the app does.
TITLE "Modelled · Linen 400 · push +1.0 · +0.5 EV · 4800 K"
LUT_3D_SIZE 5
DOMAIN_MIN 0.0 0.0 0.0
DOMAIN_MAX 1.0 1.0 1.0
0.000000 0.000000 0.000000
0.184814 0.042755 -0.000312
0.416504 0.054047 0.004902
0.568359 0.092285 0.014191
0.682129 0.221191 0.013527
0.044312 0.128174 0.001234
0.197632 0.156006 -0.002981
0.429199 0.174438 -0.002254
0.580078 0.187134 0.001989
0.689941 0.267090 -0.003132
0.141479 0.307861 -0.015686
0.235962 0.342041 -0.020859
0.469238 0.398438 -0.027512
0.623047 0.424561 -0.029358
0.722168 0.442871 -0.030502
0.250488 0.439941 -0.035645
0.283447 0.454346 -0.039246
0.492676 0.521973 -0.050110
0.648926 0.558105 -0.055023
0.749023 0.583008 -0.058197
0.358643 0.554688 0.028229
0.375732 0.562012 0.018295
0.504395 0.606445 -0.037628
0.663086 0.649414 -0.070129
0.764648 0.676270 -0.076538
-0.006584 0.013077 0.155029
0.180542 0.062744 0.152344
0.408447 0.090515 0.152710
0.559570 0.138550 0.158936
0.673828 0.250488 0.167847
0.045685 0.148804 0.157959
0.195801 0.179810 0.152100
0.422363 0.207397 0.148193
0.571289 0.220459 0.152588
0.681641 0.292969 0.160156
0.139893 0.313965 0.138184
0.234619 0.349609 0.128540
0.462158 0.410645 0.113098
0.614258 0.439941 0.112549
0.713867 0.462158 0.120178
0.248291 0.442871 0.077332
0.281738 0.458252 0.067627
0.489258 0.527344 0.013565
0.644531 0.566895 -0.012871
0.743652 0.594238 -0.005833
0.357178 0.557129 0.117371
0.374512 0.563965 0.112305
0.503906 0.609863 0.081360
0.661621 0.654297 0.025742
0.762207 0.682617 -0.031082
-0.035583 0.052002 0.386475
0.177246 0.106750 0.382080
0.401855 0.162354 0.380615
0.556152 0.223999 0.385010
0.668945 0.307373 0.392822
0.020264 0.181763 0.410889
0.195557 0.222534 0.403320
0.418457 0.267334 0.395020
0.566895 0.288574 0.391602
0.675293 0.342773 0.394775
0.118469 0.318604 0.427734
0.228027 0.361084 0.419434
0.450439 0.429932 0.407227
0.602539 0.466553 0.401611
0.704102 0.492432 0.398926
0.229370 0.444092 0.418945
0.271973 0.464355 0.415771
0.476318 0.541016 0.402100
0.629883 0.585938 0.394043
0.731934 0.616699 0.390625
0.343506 0.558594 0.395752
0.362061 0.567383 0.394287
0.493896 0.617188 0.384766
0.650391 0.666504 0.375488
0.751953 0.698242 0.371338
-0.042480 0.162720 0.585938
0.198486 0.215820 0.578125
0.412842 0.273193 0.572266
0.564453 0.322266 0.572266
0.672852 0.380371 0.576172
-0.006184 0.222778 0.602051
0.210083 0.275635 0.592773
0.423096 0.331543 0.584473
0.571777 0.363037 0.579590
0.677246 0.406006 0.580078
0.085754 0.325195 0.623535
0.234741 0.380127 0.614258
0.447510 0.449951 0.604492
0.598145 0.490723 0.597168
0.700195 0.520996 0.594238
0.209229 0.442139 0.627930
0.265381 0.468262 0.624512
0.469482 0.546387 0.612793
0.621582 0.594238 0.605469
0.724121 0.626953 0.600586
0.325928 0.553223 0.623047
0.346436 0.562500 0.622070
0.486816 0.618164 0.613281
0.640137 0.668457 0.604980
0.742676 0.701660 0.599609
0.038452 0.250488 0.729492
0.233276 0.303711 0.724121
0.429443 0.362793 0.717773
0.575195 0.408691 0.714355
0.680176 0.455811 0.714844
0.058563 0.282715 0.738281
0.240479 0.337158 0.731445
0.436035 0.396484 0.724609
0.580566 0.434326 0.719727
0.683594 0.473145 0.717773
0.095337 0.350586 0.752930
0.258057 0.410400 0.746582
0.453369 0.477783 0.738281
0.599121 0.520996 0.732910
0.700195 0.553223 0.729004
0.197876 0.447510 0.761719
0.274658 0.481934 0.757812
0.470947 0.557617 0.748535
0.618652 0.604492 0.742188
0.720215 0.638672 0.737793
0.314697 0.552246 0.763184
0.337891 0.563477 0.761719
0.485840 0.621582 0.753906
0.635254 0.671387 0.747559
0.736328 0.705078 0.742676
